X:1
T:[ID 1-78a]
T:[ID 1-78a]
T:Bezeichnung standardisiert: Menuett Menuet Secondo In dieser Quelle auch als: Menuetto
T:Urheber unbekannt Erstbeleg: vor 1767 (Datum in der schriftlichen Quelle) Datum in der hier transkribierten schriftlichen Quelle: 1792
C:Urheber unbekannt
C:Erstbeleg: vor 1767 (Datum in der schriftlichen Quelle)
C:Datum in der hier transkribierten schriftlichen Quelle: 1792
L:1/8
M:3/4
K:Eb
V:1 treble 
V:1
 g4 BG | A2 GF G2 | G4 B,G, | C2 B,A, G,2 | DEBcdB | D2 f4 | eg f2 e2 |{e} d6 :: G3 ABG | %9
 EDCB, C2 | A3 BcA | FEDC D2 | d3 fed | BAGF G2 | (3AGF E2 F2 | G6 :| %16

